X: 1573
T: Perde-i Pestten Nezâketle
C: Ahmet Avni Konuk
O: Turkey
F: http://compmusic.upf.edu/node/140
N: gerdaniye--kupe--duyek--perde-i--ahmet_avni_konuk
N: makam= gerdaniye
N: form= kupe
N: usul= duyek = 8/4
M: 8/4
L: 1/16
K: C _2/4B ^3/4f  
Q: 1/4=57
%%MIDI tuningsystem comma53
z4 g2g2 g4 g4 a3g f2a2 g3f g2a2  | \
w:  Per *  *  de  i  *  *  *  pest  | 
g4 f2f2 .f4 f4 e2f2 g2a2 a2g2 =f2e2  | 
w:  *  ten  *  *  ne zâ *  *  *  ket  | 
d4 d4 c'4 c'4 c'2_1/4b4a2 a4 {c'}b2a2  | \
w:  *  le  *  o  meh  *  *  çok   | 
g4 a2c'2 _1/4b4 a2b2 a2g2 g2f2 {a}g6z2  | 
w:  *  iş  *  *  ya *  par    | 
z4 g8 g4 a4 g2f2 g3f e4  | z4 d2_3/4e2 d2e2 d2c2 d4 e2d2 c3B c4  | 
w:  Fasl_ ı  Ger *  *  dâ  |  ni *  *  *  ye *  de  *  *  Uş  | 
z4 =f2f2 f4 f2e2 e2d2 d2g2 g3^3/4f _3/4e2d2  | \
w:  şâk_ *  *  ı  *  zâ *  *  *  re   | 
.c4 c2c2 c4 c2B2 B2A2 {c}B2A2 A6z2  | 
w:  *  dik  *  *  çı *  kar    | 
|


